flaticon/user-interface/bold.svg

<svg xmlns="http://www.w3.org/2000/svg" width="32" height="32" viewBox="0 0 24 24">
    <path d="M 0 0.199219 L 0 23.800781 L 24 23.800781 L 24 0.199219 Z M 23.199219 23 L 0.800781 23 L 0.800781 1 L 23.199219 1 Z M 23.199219 23"/>
    <path d="M 5.199219 7.398438 C 5.863281 7.398438 6.398438 6.863281 6.398438 6.199219 L 10.800781 6.199219 L 10.800781 18.199219 L 10 18.199219 C 9.339844 18.199219 8.800781 18.738281 8.800781 19.398438 C 8.800781 20.0625 9.339844 20.601562 10 20.601562 L 14 20.601562 C 14.660156 20.601562 15.199219 20.0625 15.199219 19.398438 C 15.199219 18.738281 14.660156 18.199219 14 18.199219 L 13.199219 18.199219 L 13.199219 6.199219 L 17.601562 6.199219 C 17.601562 6.863281 18.136719 7.398438 18.800781 7.398438 C 19.460938 7.398438 20 6.863281 20 6.199219 L 20 4.941406 C 20 4.3125 19.488281 3.800781 18.859375 3.800781 L 5.140625 3.800781 C 4.511719 3.800781 4 4.3125 4 4.941406 L 4 6.199219 C 4 6.863281 4.539062 7.398438 5.199219 7.398438 Z M 4.800781 4.941406 C 4.800781 4.753906 4.953125 4.601562 5.140625 4.601562 L 18.859375 4.601562 C 19.046875 4.601562 19.199219 4.753906 19.199219 4.941406 L 19.199219 6.199219 C 19.199219 6.421875 19.019531 6.601562 18.800781 6.601562 C 18.578125 6.601562 18.398438 6.421875 18.398438 6.199219 L 18.398438 5.398438 L 12.398438 5.398438 L 12.398438 19 L 14 19 C 14.21875 19 14.398438 19.179688 14.398438 19.398438 C 14.398438 19.621094 14.21875 19.800781 14 19.800781 L 10 19.800781 C 9.78125 19.800781 9.601562 19.621094 9.601562 19.398438 C 9.601562 19.179688 9.78125 19 10 19 L 11.601562 19 L 11.601562 5.398438 L 5.601562 5.398438 L 5.601562 6.199219 C 5.601562 6.421875 5.421875 6.601562 5.199219 6.601562 C 4.980469 6.601562 4.800781 6.421875 4.800781 6.199219 Z M 4.800781 4.941406"/>
</svg>

<svg xmlns="http://www.w3.org/2000/svg" width="32" height="32" viewBox="0 0 24 24">
    <path d="M0 .2v23.6h24V.2zM23.2 23H.8V1h22.4zm0 0"/>
    <path d="M5.2 7.398c.663 0 1.198-.535 1.198-1.199h4.403v12H10a1.202 1.202 0 0 0 0 2.403h4a1.202 1.202 0 0 0 0-2.402h-.8v-12h4.402A1.2 1.2 0 0 0 20 6.2V4.94c0-.628-.512-1.14-1.14-1.14H5.14C4.513 3.8 4 4.312 4 4.94V6.2c0 .664.54 1.2 1.2 1.2zm-.4-2.457a.34.34 0 0 1 .34-.34h13.72a.34.34 0 0 1 .34.34V6.2a.401.401 0 1 1-.802 0v-.8h-6V19H14a.4.4 0 0 1 0 .8h-4a.401.401 0 0 1 0-.8h1.602V5.398h-6V6.2a.401.401 0 0 1-.8 0zm0 0"/>
</svg>
